src/assets/tokens/weeth.svg

<svg xmlns="http://www.w3.org/2000/svg" fill="none" viewBox="0 0 1739 1739"><rect width="1738.27" height="1738.27" fill="url(#a)" rx="869.136"/><path fill="url(#b)" fill-rule="evenodd" d="M1286.29 1270.21c.1.74.15 1.49.17 2.25.02 5.9-3.02 11.4-8.04 14.49l-402.608 248.26c-5.444 3.35-12.291 3.37-17.715.02L458.74 1290.07a16.93 16.93 0 0 1-8.063-14.47c0-.51.021-1.03.084-1.54a14 14 0 0 1-.084-1.62l-.024-306.3c0-.37.021-.739.042-1.09a16.87 16.87 0 0 1 4.312-12.423c5.36-5.939 14.133-7.302 21.022-3.291l392.426 227.754 388.805-225.554c.63-.39 1.3-.7 1.97-.993 2.85-2.2 6.41-3.504 10.3-3.504 9.32 0 16.9 7.574 16.9 16.901l.03 303.89c0 .82-.07 1.6-.17 2.38m-801.819-24.5 115.999-70.08-116.017-159.68zm135.937-42.63-120.334 72.69 312.537 191.89zm306.281 261.05 310.371-191.39-119.93-72.11zm210.311-291 115.66 69.54-.02-229.54zm-277.023 38.11-331.761-192.56 340.222 468.33 337.072-466.38-328.572 190.61a16.91 16.91 0 0 1-16.961 0M466.979 883.927c-9.066-.311-16.334-7.749-16.334-16.901l-.032-398.136c0-.993.084-1.968.252-2.903a15.5 15.5 0 0 1-.252-2.803 16.89 16.89 0 0 1 8.061-14.468l402.627-246.932a16.85 16.85 0 0 1 17.63-.02l399.359 243.817a16.95 16.95 0 0 1 8.1 14.467c0 .253-.02.488-.02.741s.02.506.02.778l.04 403.375c0 7.127-4.44 13.242-10.68 15.715L876.594 1100.23a16.95 16.95 0 0 1-16.291 0zm17.433-390.931.025 320.363 143.584-234.021zm768.188-3.038-144.94 87.569 144.96 236.241zm-162.61 58.75c37.16-22.452 146.94-88.776 146.94-88.776L914.848 263.278zM819.657 266.959 500.072 462.97l145.62 87.568zM495.015 860.775l373.432 205.355L1241.8 860.755 868.382 252.179z" clip-rule="evenodd"/><path fill="#120370" fill-rule="evenodd" d="M1286.29 1270.21c.1.74.15 1.49.17 2.25.02 5.9-3.02 11.4-8.04 14.49l-402.608 248.26c-5.444 3.35-12.291 3.37-17.715.02L458.74 1290.07a16.93 16.93 0 0 1-8.063-14.47c0-.51.021-1.03.084-1.54a14 14 0 0 1-.084-1.62l-.024-306.3c0-.37.021-.739.042-1.09a16.87 16.87 0 0 1 4.312-12.423c5.36-5.939 14.133-7.302 21.022-3.291l392.426 227.754 388.805-225.554c.63-.39 1.3-.7 1.97-.993 2.85-2.2 6.41-3.504 10.3-3.504 9.32 0 16.9 7.574 16.9 16.901l.03 303.89c0 .82-.07 1.6-.17 2.38m-801.819-24.5 115.999-70.08-116.017-159.68zm135.937-42.63-120.334 72.69 312.537 191.89zm306.281 261.05 310.371-191.39-119.93-72.11zm210.311-291 115.66 69.54-.02-229.54zm-277.023 38.11-331.761-192.56 340.222 468.33 337.072-466.38-328.572 190.61a16.91 16.91 0 0 1-16.961 0M466.979 883.927c-9.066-.311-16.334-7.749-16.334-16.901l-.032-398.136c0-.993.084-1.968.252-2.903a15.5 15.5 0 0 1-.252-2.803 16.89 16.89 0 0 1 8.061-14.468l402.627-246.932a16.85 16.85 0 0 1 17.63-.02l399.359 243.817a16.95 16.95 0 0 1 8.1 14.467c0 .253-.02.488-.02.741s.02.506.02.778l.04 403.375c0 7.127-4.44 13.242-10.68 15.715L876.594 1100.23a16.95 16.95 0 0 1-16.291 0zm17.433-390.931.025 320.363 143.584-234.021zm768.188-3.038-144.94 87.569 144.96 236.241zm-162.61 58.75c37.16-22.452 146.94-88.776 146.94-88.776L914.848 263.278zM819.657 266.959 500.072 462.97l145.62 87.568zM495.015 860.775l373.432 205.355L1241.8 860.755 868.382 252.179z" clip-rule="evenodd"/><circle cx="869.136" cy="869.135" r="801.778" stroke="#120370" stroke-width="30.42"/><defs><linearGradient id="a" x1="120.442" x2="1625.97" y1="1142" y2="594.509" gradientUnits="userSpaceOnUse"><stop stop-color="#29BCFA"/><stop offset=".43" stop-color="#6464E4"/><stop offset="1" stop-color="#B45AFA"/></linearGradient><linearGradient id="b" x1="862.306" x2="1278.75" y1="1514.39" y2="468.586" gradientUnits="userSpaceOnUse"><stop stop-color="#29BCFA"/><stop offset=".43" stop-color="#6464E4"/><stop offset="1" stop-color="#B45AFA"/></linearGradient></defs></svg>

<svg width="1739" height="1739" viewBox="0 0 1739 1739" fill="none" xmlns="http://www.w3.org/2000/svg">
<rect width="1738.27" height="1738.27" rx="869.136" fill="url(#paint0_linear_3013_50379)"/>
<path fill-rule="evenodd" clip-rule="evenodd" d="M1286.29 1270.21C1286.39 1270.95 1286.44 1271.7 1286.46 1272.46C1286.48 1278.36 1283.44 1283.86 1278.42 1286.95L875.812 1535.21C870.368 1538.56 863.521 1538.58 858.097 1535.23L458.74 1290.07C453.714 1286.97 450.657 1281.5 450.677 1275.6C450.677 1275.09 450.698 1274.57 450.761 1274.06C450.698 1273.52 450.677 1272.99 450.677 1272.44L450.653 966.14C450.653 965.77 450.674 965.401 450.695 965.05C450.401 960.611 451.866 956.112 455.007 952.627C460.367 946.688 469.14 945.325 476.029 949.336L868.455 1177.09L1257.26 951.536C1257.89 951.146 1258.56 950.836 1259.23 950.543C1262.08 948.343 1265.64 947.039 1269.53 947.039C1278.85 947.039 1286.43 954.613 1286.43 963.94L1286.46 1267.83C1286.46 1268.65 1286.39 1269.43 1286.29 1270.21ZM484.471 1245.71L600.47 1175.63L484.453 1015.95L484.471 1245.71ZM620.408 1203.08C588.225 1222.52 500.074 1275.77 500.074 1275.77L812.611 1467.66L620.408 1203.08ZM926.689 1464.13L1237.06 1272.74L1117.13 1200.63L926.689 1464.13ZM1137 1173.13L1252.66 1242.67L1252.64 1013.13L1137 1173.13ZM859.977 1211.24L528.216 1018.68L868.438 1487.01L1205.51 1020.63L876.938 1211.24C871.703 1214.28 865.212 1214.28 859.977 1211.24ZM466.979 883.927C457.913 883.616 450.645 876.178 450.645 867.026L450.613 468.89C450.613 467.897 450.697 466.922 450.865 465.987C450.697 465.072 450.613 464.138 450.613 463.184C450.591 457.283 453.648 451.792 458.674 448.716L861.301 201.784C866.703 198.454 873.528 198.454 878.931 201.764L1278.29 445.581C1283.33 448.657 1286.39 454.148 1286.39 460.048C1286.39 460.301 1286.37 460.536 1286.37 460.789C1286.37 461.042 1286.39 461.295 1286.39 461.567L1286.43 864.942C1286.43 872.069 1281.99 878.184 1275.75 880.657L876.594 1100.23C871.527 1103.01 865.371 1103.01 860.303 1100.23L466.979 883.927ZM484.412 492.996L484.437 813.359L628.021 579.338L484.412 492.996ZM1252.6 489.958L1107.66 577.527L1252.62 813.768L1252.6 489.958ZM1089.99 548.708C1127.15 526.256 1236.93 459.932 1236.93 459.932L914.848 263.278L1089.99 548.708ZM819.657 266.959L500.072 462.97L645.692 550.538L819.657 266.959ZM495.015 860.775L868.447 1066.13L1241.8 860.755L868.382 252.179L495.015 860.775Z" fill="url(#paint1_linear_3013_50379)"/>
<path fill-rule="evenodd" clip-rule="evenodd" d="M1286.29 1270.21C1286.39 1270.95 1286.44 1271.7 1286.46 1272.46C1286.48 1278.36 1283.44 1283.86 1278.42 1286.95L875.812 1535.21C870.368 1538.56 863.521 1538.58 858.097 1535.23L458.74 1290.07C453.714 1286.97 450.657 1281.5 450.677 1275.6C450.677 1275.09 450.698 1274.57 450.761 1274.06C450.698 1273.52 450.677 1272.99 450.677 1272.44L450.653 966.14C450.653 965.77 450.674 965.401 450.695 965.05C450.401 960.611 451.866 956.112 455.007 952.627C460.367 946.688 469.14 945.325 476.029 949.336L868.455 1177.09L1257.26 951.536C1257.89 951.146 1258.56 950.836 1259.23 950.543C1262.08 948.343 1265.64 947.039 1269.53 947.039C1278.85 947.039 1286.43 954.613 1286.43 963.94L1286.46 1267.83C1286.46 1268.65 1286.39 1269.43 1286.29 1270.21ZM484.471 1245.71L600.47 1175.63L484.453 1015.95L484.471 1245.71ZM620.408 1203.08C588.225 1222.52 500.074 1275.77 500.074 1275.77L812.611 1467.66L620.408 1203.08ZM926.689 1464.13L1237.06 1272.74L1117.13 1200.63L926.689 1464.13ZM1137 1173.13L1252.66 1242.67L1252.64 1013.13L1137 1173.13ZM859.977 1211.24L528.216 1018.68L868.438 1487.01L1205.51 1020.63L876.938 1211.24C871.703 1214.28 865.212 1214.28 859.977 1211.24ZM466.979 883.927C457.913 883.616 450.645 876.178 450.645 867.026L450.613 468.89C450.613 467.897 450.697 466.922 450.865 465.987C450.697 465.072 450.613 464.138 450.613 463.184C450.591 457.283 453.648 451.792 458.674 448.716L861.301 201.784C866.703 198.454 873.528 198.454 878.931 201.764L1278.29 445.581C1283.33 448.657 1286.39 454.148 1286.39 460.048C1286.39 460.301 1286.37 460.536 1286.37 460.789C1286.37 461.042 1286.39 461.295 1286.39 461.567L1286.43 864.942C1286.43 872.069 1281.99 878.184 1275.75 880.657L876.594 1100.23C871.527 1103.01 865.371 1103.01 860.303 1100.23L466.979 883.927ZM484.412 492.996L484.437 813.359L628.021 579.338L484.412 492.996ZM1252.6 489.958L1107.66 577.527L1252.62 813.768L1252.6 489.958ZM1089.99 548.708C1127.15 526.256 1236.93 459.932 1236.93 459.932L914.848 263.278L1089.99 548.708ZM819.657 266.959L500.072 462.97L645.692 550.538L819.657 266.959ZM495.015 860.775L868.447 1066.13L1241.8 860.755L868.382 252.179L495.015 860.775Z" fill="#120370"/>
<circle cx="869.136" cy="869.135" r="801.778" stroke="#120370" stroke-width="30.4198"/>
<defs>
<linearGradient id="paint0_linear_3013_50379" x1="120.442" y1="1142" x2="1625.97" y2="594.509" gradientUnits="userSpaceOnUse">
<stop stop-color="#29BCFA"/>
<stop offset="0.43" stop-color="#6464E4"/>
<stop offset="1" stop-color="#B45AFA"/>
</linearGradient>
<linearGradient id="paint1_linear_3013_50379" x1="862.306" y1="1514.39" x2="1278.75" y2="468.586" gradientUnits="userSpaceOnUse">
<stop stop-color="#29BCFA"/>
<stop offset="0.43" stop-color="#6464E4"/>
<stop offset="1" stop-color="#B45AFA"/>
</linearGradient>
</defs>
</svg>
